X:1
T:"Gramachree Molly"    (air)    0524
T:"Gramachree Molly"    (air)    0524
T:Unattributted slow with expression
C:Unattributted
C:slow with expression
L:1/8
Q:1/4=70
M:4/4
K:G
V:1 treble 
V:1
"^vb" G | (d>e)(dB) (ef)(ge) | (d<B)(A>B) G2 z d | (g>f)ga gfed | ed(gB) d2 z d | %5
 (g>f) (gb/a/) gfed |"^>" e"^>"d"^>"c"^>"B !fermata!e2 z f | (g>f)e(d e-e/)f/ !fermata!ge | %8
 (d<B)(A>B) G2 z |] %9

